X:6
T: Sheebag Sheemore
C: O'Carolan
M: 3/4
S: printed copy of unknown origin in Concord Slow Scottish Session collection
R: waltz
K: D
de |\
"D"f3 e d2 | d3 e d2 | "G"B4 A2 | "D"F4 A2 |\
"G"BA Bc d2 | "A"e4 de | "D"f4 e2 | d4 f2 |
"G"B4 e2 | "D"A4 d2 | F4 "A"E2 | "D"D4 f2 |\
"G"B4 e2 | "D"A4 "A"c2 | "D"d4 c2 | d4 :|
|: de |\
"D"f3 e d2 | ed ef a2 | "G"b4 a2 | "D"f3 e d2 |\
"A"e4 a2 | "D"f4 e2 | "G"d4 B2 | B4 BA |
"D"F4 "A"E2 | "D"D4 f2 | "G"B4 e2 | "A"A4 a2 |\
"G"ba gf ed | "A"e2 fe dc | "D"d4 c2 | d4 :|
